icons/question-answer-line.svg

<svg xmlns="http://www.w3.org/2000/svg" width="24" height="24" fill="none"><g clip-path="url(#a)"><g><path fill="#121212" d="M5.455 15L1 18.5V3C1 2.73478 1.10536 2.48043 1.29289 2.29289C1.48043 2.10536 1.73478 2 2 2H17C17.2652 2 17.5196 2.10536 17.7071 2.29289C17.8946 2.48043 18 2.73478 18 3V15H5.455ZM4.763 13H16V4H3V14.385L4.763 13ZM8 17H18.237L20 18.385V8H21C21.2652 8 21.5196 8.10536 21.7071 8.29289C21.8946 8.48043 22 8.73478 22 9V22.5L17.545 19H9C8.73478 19 8.48043 18.8946 8.29289 18.7071C8.10536 18.5196 8 18.2652 8 18V17Z"/></g></g><defs><clipPath id="a"><rect width="24" height="24" fill="white"/></clipPath></defs></svg>

<svg width="24" height="24" fill="none" xmlns="http://www.w3.org/2000/svg"><g clip-path="url(#a)"><path d="M5.455 15 1 18.5V3a1 1 0 0 1 1-1h15a1 1 0 0 1 1 1v12H5.455Zm-.692-2H16V4H3v10.385L4.763 13ZM8 17h10.237L20 18.385V8h1a1 1 0 0 1 1 1v13.5L17.545 19H9a1 1 0 0 1-1-1v-1Z" /></g><defs><clipPath id="a"><path fill="#fff" d="M0 0h24v24H0z"/></clipPath></defs></svg>
